dist/assets/img/uxscoreboard.svg

<?xml version="1.0" encoding="UTF-8"?>
<svg width="651px" height="133px" viewBox="0 0 651 133" version="1.1" xmlns="http://www.w3.org/2000/svg" xmlns:xlink="http://www.w3.org/1999/xlink">
    <!-- Generator: Sketch 41 (35326) - http://www.bohemiancoding.com/sketch -->
    <title>uxscoreboard_final</title>
    <desc>Created with Sketch.</desc>
    <defs>
        <rect id="path-1" x="0" y="0" width="100" height="133"></rect>
        <mask id="mask-2" maskContentUnits="userSpaceOnUse" maskUnits="objectBoundingBox" x="0" y="0" width="100" height="133" fill="white">
            <use xlink:href="#path-1"></use>
        </mask>
        <rect id="path-3" x="0" y="0" width="100" height="133"></rect>
        <mask id="mask-4" maskContentUnits="userSpaceOnUse" maskUnits="objectBoundingBox" x="0" y="0" width="100" height="133" fill="white">
            <use xlink:href="#path-3"></use>
        </mask>
    </defs>
    <g id="Page-1" stroke="none" stroke-width="1" fill="none" fill-rule="evenodd">
        <g id="uxscoreboard_final">
            <g id="uxscoreboard">
                <g id="ux">
                    <g id="x_right_half" transform="translate(93.000000, 0.000000)">
                        <use id="left_half" stroke="#F5F5F5" mask="url(#mask-2)" stroke-width="14" fill="#000000" xlink:href="#path-1"></use>
                        <path d="M35.25,36.6 L35.75,31.2 L41.35,31.2 L50.75,60.1 L44.35,65 L35.25,36.6 Z M51.15,62.1 L55.75,62.1 L59.05,65.8 L54.55,69.2 L50.65,69.2 L47.05,65.8 L51.15,62.1 Z M28.55,100 L29.15,94.6 L44.25,66.2 L49.55,71.1 L34.15,100 L28.55,100 Z M77.55,31.2 L77.05,36.6 L61.95,65 L56.55,60.1 L71.95,31.2 L77.55,31.2 Z M70.95,94.6 L70.35,100 L64.75,100 L55.35,71.1 L61.85,66.2 L70.95,94.6 Z" id="x" fill="#F5F5F5"></path>
                    </g>
                    <g id="u_left_half">
                        <use id="left_half" stroke="#F5F5F5" mask="url(#mask-4)" stroke-width="14" fill="#000000" xlink:href="#path-3"></use>
                        <path d="M42.85,38.8 L38.75,31.2 C37.949996,31.666669 37.3000025,32.3833285 36.8,33.35 C36.2999975,34.3166715 35.983334,35.166663 35.85,35.9 L33.25,60.8 L33.35,61.9 C33.483334,62.300002 33.8333305,62.7833305 34.4,63.35 C34.9666695,63.9166695 35.316666,64.2 35.45,64.2 L36.25,64.2 C36.650002,63.866665 37.2999955,63.2833375 38.2,62.45 C39.1000045,61.6166625 39.816664,60.933336 40.35,60.4 L40.85,58.3 L42.85,38.8 Z M68.05,60.4 C68.383335,60.933336 68.916663,61.6166625 69.65,62.45 C70.383337,63.2833375 70.949998,63.866665 71.35,64.2 L72.15,64.2 C72.283334,64.2 72.68333,63.9166695 73.35,63.35 C74.01667,62.7833305 74.449999,62.300002 74.65,61.9 L74.95,60.8 L77.55,35.9 C77.683334,35.166663 77.583335,34.3166715 77.25,33.35 C76.916665,32.3833285 76.383337,31.666669 75.65,31.2 L69.95,38.8 L67.95,58.3 L68.05,60.4 Z M67.85,100 C68.450003,100 69.0666635,99.7500025 69.7,99.25 C70.3333365,98.7499975 70.783332,98.200003 71.05,97.6 L64.95,92.9 L39.15,92.9 L34.15,99.6 L34.15,100 L67.85,100 Z M64.65,89.9 L70.95,95.1 L71.35,95.1 L73.95,70.8 L73.85,69.7 C73.716666,69.299998 73.3666695,68.8166695 72.8,68.25 C72.2333305,67.6833305 71.883334,67.4 71.75,67.4 L70.95,67.4 C70.549998,67.733335 69.9000045,68.3166625 69,69.15 C68.0999955,69.9833375 67.383336,70.666664 66.85,71.2 L66.35,73.3 L64.65,89.9 Z M39.15,71.2 C38.749998,70.666664 38.2000035,69.9833375 37.5,69.15 C36.7999965,68.3166625 36.250002,67.733335 35.85,67.4 L35.05,67.4 C34.916666,67.4 34.51667,67.6833305 33.85,68.25 C33.18333,68.8166695 32.750001,69.299998 32.55,69.7 L32.25,70.8 L29.65,95.3 C29.516666,96.033337 29.616665,96.8833285 29.95,97.85 C30.283335,98.8166715 30.816663,99.533331 31.55,100 L37.25,92.4 L39.25,73.3 L39.15,71.2 Z" id="u" fill="#F5F5F5"></path>
                    </g>
                </g>
                <path d="M204.798,91.07 L204.798,86.513 C208.82802,87.8770068 213.136977,88.559 217.725,88.559 C222.065022,88.559 225.164991,87.9700059 227.025,86.792 C228.885009,85.6139941 229.815,83.6300139 229.815,80.84 C229.815,79.1039913 229.458504,77.740005 228.7455,76.748 C228.032496,75.755995 226.994007,74.9500031 225.63,74.33 C224.265993,73.7099969 222.127015,72.904005 219.213,71.912 L216.888,71.075 C213.539983,69.9589944 211.044508,69.0135039 209.4015,68.2385 C207.758492,67.4634961 206.379006,66.3165076 205.263,64.7975 C204.146994,63.2784924 203.589,61.217013 203.589,58.613 C203.589,54.7069805 204.875487,51.7930096 207.4485,49.871 C210.021513,47.9489904 214.128972,46.988 219.771,46.988 C223.987021,46.988 227.892982,47.5149947 231.489,48.569 L231.489,53.126 C227.892982,52.0099944 224.235019,51.452 220.515,51.452 C216.174978,51.452 213.106009,51.9944946 211.308,53.0795 C209.509991,54.1645054 208.611,55.9779873 208.611,58.52 C208.611,60.1940084 208.982996,61.5114952 209.727,62.4725 C210.471004,63.4335048 211.571493,64.2239969 213.0285,64.844 C214.485507,65.4640031 216.856984,66.3009947 220.143,67.355 C223.863019,68.5330059 226.73049,69.6334949 228.7455,70.6565 C230.76051,71.6795051 232.294995,72.9814921 233.349,74.5625 C234.403005,76.1435079 234.93,78.235987 234.93,80.84 C234.93,88.9000403 229.412055,92.93 218.376,92.93 C213.043973,92.93 208.518019,92.3100062 204.798,91.07 Z M245.16,69.959 C245.16,62.3949622 247.15948,56.6755194 251.1585,52.8005 C255.15752,48.9254806 260.690965,46.988 267.759,46.988 C270.425013,46.988 272.641491,47.1739981 274.4085,47.546 C276.175509,47.9180019 277.957991,48.5379957 279.756,49.406 L279.756,53.591 C276.469984,52.0409922 272.750021,51.266 268.596,51.266 C256.319939,51.266 250.182,57.4969377 250.182,69.959 C250.182,76.4690325 251.576986,81.227485 254.367,84.2345 C257.157014,87.241515 261.775968,88.745 268.224,88.745 C272.25402,88.745 276.128981,87.9390081 279.849,86.327 L279.849,90.605 C276.190982,92.1550077 271.913024,92.93 267.015,92.93 C252.444927,92.93 245.16,85.2730766 245.16,69.959 Z M291.846,87.164 C288.497983,83.3199808 286.824,77.5850381 286.824,69.959 C286.824,62.3949622 288.528983,56.6755194 291.939,52.8005 C295.349017,48.9254806 300.649964,46.988 307.842,46.988 C315.034036,46.988 320.350483,48.9254806 323.7915,52.8005 C327.232517,56.6755194 328.953,62.3949622 328.953,69.959 C328.953,77.5850381 327.263517,83.3199808 323.8845,87.164 C320.505483,91.0080192 315.158037,92.93 307.842,92.93 C300.525963,92.93 295.194017,91.0080192 291.846,87.164 Z M320.1645,84.095 C322.613512,81.1189851 323.838,76.4070322 323.838,69.959 C323.838,63.5729681 322.598012,58.8920149 320.118,55.916 C317.637988,52.9399851 313.546029,51.452 307.842,51.452 C302.137971,51.452 298.046012,52.9399851 295.566,55.916 C293.085988,58.8920149 291.846,63.5729681 291.846,69.959 C291.846,76.4070322 293.070488,81.1189851 295.5195,84.095 C297.968512,87.0710149 302.075971,88.559 307.842,88.559 C313.608029,88.559 317.715488,87.0710149 320.1645,84.095 Z M341.043,47.918 L345.507,47.918 L346.065,54.056 C348.297011,52.5059922 350.885485,51.1110062 353.8305,49.871 C356.775515,48.6309938 359.704985,47.6700034 362.619,46.988 L362.619,51.173 C359.828986,51.8550034 356.837516,52.8624933 353.6445,54.1955 C350.451484,55.5285067 347.956009,56.8459935 346.158,58.148 L346.158,92 L341.043,92 L341.043,47.918 Z M373.6395,87.3035 C370.012482,83.5524812 368.199,77.67804 368.199,69.68 C368.199,54.5519244 374.987932,46.988 388.566,46.988 C394.64203,46.988 399.198985,48.6154837 402.237,51.8705 C405.275015,55.1255163 406.794,59.3879736 406.794,64.658 L406.794,72.656 L373.314,72.656 C373.500001,76.5620195 374.212994,79.6774884 375.453,82.0025 C376.693006,84.3275116 378.630487,86.0324946 381.2655,87.1175 C383.900513,88.2025054 387.480977,88.745 392.007,88.745 C396.09902,88.745 400.066981,87.9700077 403.911,86.42 L403.911,90.605 C400.128981,92.1550077 395.820024,92.93 390.984,92.93 C383.04796,92.93 377.266518,91.0545188 373.6395,87.3035 Z M402.144,68.657 L402.144,64.472 C402.144,55.667956 397.649045,51.266 388.659,51.266 C383.078972,51.266 379.126512,52.7074856 376.8015,55.5905 C374.476488,58.4735144 373.314,62.8289709 373.314,68.657 L402.144,68.657 Z M430.695,91.535 C428.152987,90.6049953 425.797011,89.1170102 423.627,87.071 L423.162,92 L418.884,92 L418.884,29.318 L423.999,29.318 L423.999,51.638 C428.277021,48.5379845 433.45397,46.988 439.53,46.988 C452.674066,46.988 459.246,54.5209247 459.246,69.587 C459.246,77.4610394 457.541017,83.3199808 454.131,87.164 C450.720983,91.0080192 445.854032,92.93 439.53,92.93 C436.181983,92.93 433.237013,92.4650046 430.695,91.535 Z M450.4575,84.002 C452.968513,80.8399842 454.224,76.0350322 454.224,69.587 C454.224,63.1389678 452.922013,58.4735144 450.318,55.5905 C447.713987,52.7074856 443.653028,51.266 438.135,51.266 C432.554972,51.266 427.843019,52.8779839 423.999,56.102 L423.999,82.793 C427.719019,86.7610198 432.492971,88.745 438.321,88.745 C443.901028,88.745 447.946487,87.1640158 450.4575,84.002 Z M472.173,87.164 C468.824983,83.3199808 467.151,77.5850381 467.151,69.959 C467.151,62.3949622 468.855983,56.6755194 472.266,52.8005 C475.676017,48.9254806 480.976964,46.988 488.169,46.988 C495.361036,46.988 500.677483,48.9254806 504.1185,52.8005 C507.559517,56.6755194 509.28,62.3949622 509.28,69.959 C509.28,77.5850381 507.590517,83.3199808 504.2115,87.164 C500.832483,91.0080192 495.485037,92.93 488.169,92.93 C480.852963,92.93 475.521017,91.0080192 472.173,87.164 Z M500.4915,84.095 C502.940512,81.1189851 504.165,76.4070322 504.165,69.959 C504.165,63.5729681 502.925012,58.8920149 500.445,55.916 C497.964988,52.9399851 493.873029,51.452 488.169,51.452 C482.464971,51.452 478.373012,52.9399851 475.893,55.916 C473.412988,58.8920149 472.173,63.5729681 472.173,69.959 C472.173,76.4070322 473.397488,81.1189851 475.8465,84.095 C478.295512,87.0710149 482.402971,88.559 488.169,88.559 C493.935029,88.559 498.042488,87.0710149 500.4915,84.095 Z M521.5095,89.768 C518.626486,87.6599895 517.185,84.4980211 517.185,80.282 C517.185,76.1279792 518.486987,72.8885116 521.091,70.5635 C523.695013,68.2384884 527.848971,67.076 533.553,67.076 L550.014,67.076 L550.014,62.891 C550.014,59.9769854 549.642004,57.6985082 548.898,56.0555 C548.153996,54.4124918 546.79001,53.2190037 544.806,52.475 C542.82199,51.7309963 539.970019,51.359 536.25,51.359 C531.413976,51.359 526.733023,52.1649919 522.207,53.777 L522.207,49.406 C526.361021,47.7939919 531.351971,46.988 537.18,46.988 C543.318031,46.988 547.812986,48.2279876 550.665,50.708 C553.517014,53.1880124 554.943,57.2179721 554.943,62.798 L554.943,92 L550.758,92 L550.293,86.513 C548.24699,88.7450112 545.813514,90.3724949 542.9925,91.3955 C540.171486,92.4185051 536.684021,92.93 532.53,92.93 C528.065978,92.93 524.392514,91.8760105 521.5095,89.768 Z M550.014,81.77 L550.014,71.168 L533.739,71.168 C529.522979,71.168 526.547009,71.9119926 524.811,73.4 C523.074991,74.8880074 522.207,77.1819845 522.207,80.282 C522.207,83.2580149 523.19899,85.3969935 525.183,86.699 C527.16701,88.0010065 530.049981,88.652 533.832,88.652 C540.714034,88.652 546.10798,86.3580229 550.014,81.77 Z M568.428,47.918 L572.892,47.918 L573.45,54.056 C575.682011,52.5059922 578.270485,51.1110062 581.2155,49.871 C584.160515,48.6309938 587.089985,47.6700034 590.004,46.988 L590.004,51.173 C587.213986,51.8550034 584.222516,52.8624933 581.0295,54.1955 C577.836484,55.5285067 575.341009,56.8459935 573.543,58.148 L573.543,92 L568.428,92 L568.428,47.918 Z M599.4435,87.3965 C595.940482,83.7074816 594.189,78.0190384 594.189,70.331 C594.189,62.5189609 595.955982,56.6755194 599.49,52.8005 C603.024018,48.9254806 607.983968,46.988 614.37,46.988 C617.408015,46.988 620.120488,47.3444964 622.5075,48.0575 C624.894512,48.7705036 627.203989,49.9639916 629.436,51.638 L629.436,29.318 L634.551,29.318 L634.551,92 L630.273,92 L629.808,87.071 C627.637989,89.1170102 625.282013,90.6049953 622.74,91.535 C620.197987,92.4650046 617.253017,92.93 613.905,92.93 C607.766969,92.93 602.946518,91.0855184 599.4435,87.3965 Z M629.436,82.793 L629.436,56.102 C625.715981,52.8779839 621.159027,51.266 615.765,51.266 C610.246972,51.266 606.108514,52.8159845 603.3495,55.916 C600.590486,59.0160155 599.211,63.8209674 599.211,70.331 C599.211,76.5930313 600.512987,81.227485 603.117,84.2345 C605.721013,87.241515 609.719973,88.745 615.114,88.745 C620.942029,88.745 625.715981,86.7610198 629.436,82.793 Z" id="scoreboard" fill="#000000"></path>
            </g>
        </g>
    </g>
</svg>

<svg width="651" height="133" viewBox="0 0 651 133" xmlns="http://www.w3.org/2000/svg" xmlns:xlink="http://www.w3.org/1999/xlink"><title>uxscoreboard_final</title><defs><path id="a" d="M0 0h100v133H0z"/><mask id="c" x="0" y="0" width="100" height="133" fill="#fff"><use xlink:href="#a"/></mask><path id="b" d="M0 0h100v133H0z"/><mask id="d" x="0" y="0" width="100" height="133" fill="#fff"><use xlink:href="#b"/></mask></defs><g fill="none" fill-rule="evenodd"><g transform="translate(93)"><use stroke="#F5F5F5" mask="url(#c)" stroke-width="14" fill="#000" xlink:href="#a"/><path d="M35.25 36.6l.5-5.4h5.6l9.4 28.9-6.4 4.9-9.1-28.4zm15.9 25.5h4.6l3.3 3.7-4.5 3.4h-3.9l-3.6-3.4 4.1-3.7zM28.55 100l.6-5.4 15.1-28.4 5.3 4.9-15.4 28.9h-5.6zm49-68.8l-.5 5.4L61.95 65l-5.4-4.9 15.4-28.9h5.6zm-6.6 63.4l-.6 5.4h-5.6l-9.4-28.9 6.5-4.9 9.1 28.4z" fill="#F5F5F5"/></g><use stroke="#F5F5F5" mask="url(#d)" stroke-width="14" fill="#000" xlink:href="#b"/><path d="M42.85 38.8l-4.1-7.6c-.8.467-1.45 1.183-1.95 2.15-.5.967-.817 1.817-.95 2.55l-2.6 24.9.1 1.1c.133.4.483.883 1.05 1.45.567.567.917.85 1.05.85h.8c.4-.333 1.05-.917 1.95-1.75.9-.833 1.617-1.517 2.15-2.05l.5-2.1 2-19.5zm25.2 21.6c.333.533.867 1.217 1.6 2.05.733.833 1.3 1.417 1.7 1.75h.8c.133 0 .533-.283 1.2-.85.667-.567 1.1-1.05 1.3-1.45l.3-1.1 2.6-24.9c.133-.733.033-1.583-.3-2.55-.333-.967-.867-1.683-1.6-2.15l-5.7 7.6-2 19.5.1 2.1zm-.2 39.6c.6 0 1.217-.25 1.85-.75s1.083-1.05 1.35-1.65l-6.1-4.7h-25.8l-5 6.7v.4h33.7zm-3.2-10.1l6.3 5.2h.4l2.6-24.3-.1-1.1c-.133-.4-.483-.883-1.05-1.45-.567-.567-.917-.85-1.05-.85h-.8c-.4.333-1.05.917-1.95 1.75-.9.833-1.617 1.517-2.15 2.05l-.5 2.1-1.7 16.6zm-25.5-18.7c-.4-.533-.95-1.217-1.65-2.05-.7-.833-1.25-1.417-1.65-1.75h-.8c-.133 0-.533.283-1.2.85-.667.567-1.1 1.05-1.3 1.45l-.3 1.1-2.6 24.5c-.133.733-.033 1.583.3 2.55.333.967.867 1.683 1.6 2.15l5.7-7.6 2-19.1-.1-2.1z" fill="#F5F5F5"/><path d="M204.798 91.07v-4.557c4.03 1.364 8.339 2.046 12.927 2.046 4.34 0 7.44-.589 9.3-1.767 1.86-1.178 2.79-3.162 2.79-5.952 0-1.736-.356-3.1-1.07-4.092-.713-.992-1.751-1.798-3.115-2.418-1.364-.62-3.503-1.426-6.417-2.418l-2.325-.837c-3.348-1.116-5.843-2.061-7.487-2.837-1.643-.775-3.022-1.921-4.138-3.44-1.116-1.52-1.674-3.581-1.674-6.185 0-3.906 1.286-6.82 3.86-8.742 2.573-1.922 6.68-2.883 12.322-2.883 4.216 0 8.122.527 11.718 1.581v4.557a36.822 36.822 0 0 0-10.974-1.674c-4.34 0-7.409.542-9.207 1.628-1.798 1.085-2.697 2.898-2.697 5.44 0 1.674.372 2.991 1.116 3.952.744.962 1.844 1.752 3.302 2.372 1.457.62 3.828 1.457 7.114 2.511 3.72 1.178 6.587 2.278 8.602 3.301 2.016 1.024 3.55 2.325 4.604 3.906 1.054 1.582 1.581 3.674 1.581 6.278 0 8.06-5.518 12.09-16.554 12.09-5.332 0-9.858-.62-13.578-1.86zm40.362-21.111c0-7.564 2-13.283 5.999-17.159 3.999-3.875 9.532-5.812 16.6-5.812 2.666 0 4.882.186 6.65.558 1.767.372 3.549.992 5.347 1.86v4.185c-3.286-1.55-7.006-2.325-11.16-2.325-12.276 0-18.414 6.23-18.414 18.693 0 6.51 1.395 11.268 4.185 14.275 2.79 3.008 7.409 4.511 13.857 4.511 4.03 0 7.905-.806 11.625-2.418v4.278c-3.658 1.55-7.936 2.325-12.834 2.325-14.57 0-21.855-7.657-21.855-22.971zm46.686 17.205c-3.348-3.844-5.022-9.579-5.022-17.205 0-7.564 1.705-13.283 5.115-17.159 3.41-3.875 8.711-5.812 15.903-5.812s12.508 1.937 15.95 5.813c3.44 3.875 5.161 9.594 5.161 17.158 0 7.626-1.69 13.361-5.068 17.205-3.38 3.844-8.727 5.766-16.043 5.766-7.316 0-12.648-1.922-15.996-5.766zm28.318-3.069c2.45-2.976 3.674-7.688 3.674-14.136 0-6.386-1.24-11.067-3.72-14.043-2.48-2.976-6.572-4.464-12.276-4.464s-9.796 1.488-12.276 4.464c-2.48 2.976-3.72 7.657-3.72 14.043 0 6.448 1.224 11.16 3.673 14.136 2.45 2.976 6.557 4.464 12.323 4.464s9.873-1.488 12.322-4.464zm20.879-36.177h4.464l.558 6.138c2.232-1.55 4.82-2.945 7.765-4.185a54.865 54.865 0 0 1 8.789-2.883v4.185c-2.79.682-5.781 1.69-8.975 3.023-3.193 1.333-5.688 2.65-7.486 3.952V92h-5.115V47.918zm32.596 39.386c-3.627-3.752-5.44-9.626-5.44-17.624 0-15.128 6.789-22.692 20.367-22.692 6.076 0 10.633 1.627 13.671 4.883 3.038 3.255 4.557 7.517 4.557 12.787v7.998h-33.48c.186 3.906.899 7.021 2.139 9.346 1.24 2.326 3.177 4.03 5.813 5.116 2.635 1.085 6.215 1.627 10.741 1.627 4.092 0 8.06-.775 11.904-2.325v4.185c-3.782 1.55-8.091 2.325-12.927 2.325-7.936 0-13.717-1.875-17.344-5.627zm28.505-18.647v-4.185c0-8.804-4.495-13.206-13.485-13.206-5.58 0-9.532 1.441-11.858 4.325-2.325 2.883-3.487 7.238-3.487 13.066h28.83zm28.551 22.878c-2.542-.93-4.898-2.418-7.068-4.464L423.162 92h-4.278V29.318h5.115v22.32c4.278-3.1 9.455-4.65 15.531-4.65 13.144 0 19.716 7.533 19.716 22.599 0 7.874-1.705 13.733-5.115 17.577-3.41 3.844-8.277 5.766-14.601 5.766-3.348 0-6.293-.465-8.835-1.395zm19.762-7.533c2.512-3.162 3.767-7.967 3.767-14.415 0-6.448-1.302-11.113-3.906-13.997-2.604-2.883-6.665-4.324-12.183-4.324-5.58 0-10.292 1.612-14.136 4.836v26.691c3.72 3.968 8.494 5.952 14.322 5.952 5.58 0 9.625-1.581 12.136-4.743zm21.716 3.162c-3.348-3.844-5.022-9.579-5.022-17.205 0-7.564 1.705-13.283 5.115-17.159 3.41-3.875 8.711-5.812 15.903-5.812s12.508 1.937 15.95 5.813c3.44 3.875 5.161 9.594 5.161 17.158 0 7.626-1.69 13.361-5.068 17.205-3.38 3.844-8.727 5.766-16.043 5.766-7.316 0-12.648-1.922-15.996-5.766zm28.318-3.069c2.45-2.976 3.674-7.688 3.674-14.136 0-6.386-1.24-11.067-3.72-14.043-2.48-2.976-6.572-4.464-12.276-4.464s-9.796 1.488-12.276 4.464c-2.48 2.976-3.72 7.657-3.72 14.043 0 6.448 1.224 11.16 3.673 14.136 2.45 2.976 6.557 4.464 12.323 4.464s9.873-1.488 12.322-4.464zm21.019 5.673c-2.884-2.108-4.325-5.27-4.325-9.486 0-4.154 1.302-7.393 3.906-9.718 2.604-2.326 6.758-3.488 12.462-3.488h16.461v-4.185c0-2.914-.372-5.192-1.116-6.835-.744-1.644-2.108-2.837-4.092-3.581-1.984-.744-4.836-1.116-8.556-1.116-4.836 0-9.517.806-14.043 2.418v-4.371c4.154-1.612 9.145-2.418 14.973-2.418 6.138 0 10.633 1.24 13.485 3.72 2.852 2.48 4.278 6.51 4.278 12.09V92h-4.185l-.465-5.487a18.177 18.177 0 0 1-7.3 4.882c-2.822 1.024-6.309 1.535-10.463 1.535-4.464 0-8.137-1.054-11.02-3.162zm28.504-7.998V71.168h-16.275c-4.216 0-7.192.744-8.928 2.232-1.736 1.488-2.604 3.782-2.604 6.882 0 2.976.992 5.115 2.976 6.417 1.984 1.302 4.867 1.953 8.649 1.953 6.882 0 12.276-2.294 16.182-6.882zm18.414-33.852h4.464l.558 6.138c2.232-1.55 4.82-2.945 7.765-4.185a54.865 54.865 0 0 1 8.789-2.883v4.185c-2.79.682-5.781 1.69-8.975 3.023-3.193 1.333-5.688 2.65-7.486 3.952V92h-5.115V47.918zm31.015 39.479c-3.503-3.69-5.254-9.378-5.254-17.066 0-7.812 1.767-13.655 5.301-17.53 3.534-3.876 8.494-5.813 14.88-5.813 3.038 0 5.75.356 8.138 1.07 2.387.713 4.696 1.906 6.928 3.58v-22.32h5.115V92h-4.278l-.465-4.929c-2.17 2.046-4.526 3.534-7.068 4.464-2.542.93-5.487 1.395-8.835 1.395-6.138 0-10.958-1.844-14.462-5.534zm29.993-4.604V56.102c-3.72-3.224-8.277-4.836-13.671-4.836-5.518 0-9.656 1.55-12.415 4.65-2.76 3.1-4.139 7.905-4.139 14.415 0 6.262 1.302 10.896 3.906 13.903 2.604 3.008 6.603 4.511 11.997 4.511 5.828 0 10.602-1.984 14.322-5.952z" fill="#000"/></g></svg>
